src/components/Icon/svg-icon/main/note.svg

<svg xmlns="http://www.w3.org/2000/svg" width="24" height="24"><path fill="#677078" d="M22 10l-6-6H4c-1.1 0-2 .9-2 2v12.01c0 1.1.9 1.99 2 1.99l16-.01c1.1 0 2-.89 2-1.99v-8zm-7-4.5l5.5 5.5H15V5.5z"/></svg>

<svg xmlns="http://www.w3.org/2000/svg" width="24" height="24" viewBox="0 0 24 24">
  <path fill="#677078" d="M22,10 L16,4 L4,4 C2.9,4 2,4.9 2,6 L2,18.01 C2,19.11 2.9,20 4,20 L20,19.99 C21.1,19.99 22,19.1 22,18 L22,10 L22,10 Z M15,5.5 L20.5,11 L15,11 L15,5.5 Z"/>
</svg>
